X: 6755
T: Changelings, The
R: waltz
M: 3/4
K: Bminor
B3 A B/c/d|B3 A FE|Fd dc ec|d2 de c2|
f3 e d2|e2 a2 c2|B3 d ce|df ed c/B/A|
F2 BA B/c/d|B3 A FE|Fd dc e2|d2 de c2|
f3 e d2|e2 a2 c2|B3 d cA|B4 a2||
|:a3 f df|e4 B/c/e|fb ba fa|b2 ba f2|
de ef B2|A3 B FE|FB Bd ce|d2 ed c/B/A:|

